X:1
T:Scots Wha Hae,aka. LW.094
T:Scots Wha Hae,aka. LW.094
T:Untitled in ms. LW.094
T:In a very different hand
C:In a very different hand
L:1/8
Q:1/2=75
M:2/2
K:C
V:1 treble 
V:1
 G>GG>A G>A c2 | A>AA>G A>c d2 | e<fd<e c>de>d | c<AA>G G2 z2 || e>ee>d e>^f g2 | d>dd>c d>e f2 | %6
 e<fd<e c>de>d | c<AA>G G2 z2 |] %8

